Dart/resources/icons/dart_remote_dark.svg

<svg xmlns="http://www.w3.org/2000/svg" xmlns:xlink="http://www.w3.org/1999/xlink" width="16" height="16" viewBox="0 0 16 16">
  <defs>
    <polygon id="dart_remote_dark-a" points="0 0 10 0 10 7 0 7"/>
  </defs>
  <g fill="none" fill-rule="evenodd">
    <path fill="#70B4F4" d="M9.9004853,9.90075674 L9.35647634,9.35617634 L9.35990497,13.2979555 C9.36276216,13.7242482 9.33304739,14.0779684 9.54962238,14.2939719 L9.84105575,14.5865482 L14.5622763,14.5625478 L9.9004853,9.90075674" opacity=".9"/>
    <polygon fill="#7CC1FD" points="9.841 14.587 11.255 16 14.589 16 14.563 14.563" opacity=".9"/>
    <path fill="#5070A8" d="M9.35973354 13.2981269L9.35630491 9.35634777 8.10942724 11.9575334C7.96371056 12.2678243 7.90199526 12.6472591 8.32771655 13.0724089L9.54945095 14.2941433C9.33287595 14.0775683 9.36259073 13.7244197 9.35973354 13.2981269M14.586391 9.84161291L14.2943862 9.54903666C14.0778112 9.33246167 13.7246625 9.36217644 13.2983698 9.35931925L9.35659063 9.35589062 9.90117102 9.90104245 14.5623906 14.5628335 16.0007 14.5891196 16.0007 11.2553505 14.586391 9.84161291z" opacity=".9"/>
    <path fill="#7CC1FD" d="M13.2978555,9.35943354 L9.35664777,9.35600491 L11.957262,8.10912724 C12.2681243,7.96341056 12.6475591,7.9022667 13.0727089,8.32741655 L14.2944433,9.54915095 C14.0778683,9.33257595 13.7241482,9.36229073 13.2978555,9.35943354" opacity=".9"/>
    <polygon fill="#9AA7B0" points="5 11 6 11 6 8 5 8"/>
    <path fill="#9AA7B0" fill-opacity=".8" d="M7.6211,13.7803 L7.4381,13.5973 L7.4811,13.5973 C7.3251,13.4083 7.2211,13.2073 7.1411,13.0003 L2.0001,13.0003 L2.0001,5.0003 L4.0001,5.0003 L4.0001,3.0003 L1.0001,3.0003 L1.0001,14.0003 L7.8411,14.0003 L7.6211,13.7803 Z"/>
    <polygon fill="#9AA7B0" points="14 7.842 15 8.842 15 1 5 1 5 5 6 5 6 3 14 3"/>
    <g transform="translate(3 4)">
      <mask id="dart_remote_dark-b" fill="#fff">
        <use xlink:href="#dart_remote_dark-a"/>
      </mask>
      <path fill="#B1BBC2" d="M10,2.5039 L7,-0.0001 L7,1.9999 L2,1.9999 C0.9,1.9999 0,2.8999 0,3.9999 L0,6.9999 L1,6.9999 L1,3.9999 C1,3.4489 1.448,2.9999 2,2.9999 L5,2.9999 L7,2.9969 L7,4.9999 L10,2.5039 Z" mask="url(#dart_remote_dark-b)"/>
    </g>
  </g>
</svg>

<svg id="Layer_1" data-name="Layer 1" xmlns="http://www.w3.org/2000/svg" width="16" height="16" viewBox="0 0 16 16">
  <title>dart_remote_dark</title>
  <g>
    <path d="M7.62126,13.78027l-.18262-.18261h.043A2.10173,2.10173,0,0,1,7.14079,13H2.00017V5h2V3h-3V14H7.841Z" fill="#9aa7b0" opacity="0.7" style="isolation: isolate"/>
    <rect x="5.00017" y="8" width="1" height="3" fill="#9aa7b0" opacity="0.7"/>
    <polygon points="14 7.842 15 8.842 15 1 5 1 5 5 6 5 6 3 14 3 14 7.842" fill="#9aa7b0" opacity="0.8" style="isolation: isolate"/>
    <path d="M13.00017,6.50391,10.00017,4V6h-5a2.00575,2.00575,0,0,0-2,2v3h1V8a1.00114,1.00114,0,0,1,1-1h3l2-.00293V8.99951Z" fill="#b1bbc2"/>
    <g>
      <g>
        <path d="M9.90053,9.90082,9.356,9.35627l.00337,3.94163c.00274.42628-.02681.77982.18979.99641l.29211.29211,4.721-.02412L9.90053,9.90082" fill="#70b4f4"/>
        <path d="M9.43379,13.73846l.00026.00026-.00121-.00557Zm.40746.848L11.25482,16h3.33363l-.02624-1.4377Z" fill="#7cc1fd"/>
        <path d="M9.35935,13.29789,9.356,9.35628h0L8.109,11.95742a.88773.88773,0,0,0,.21868,1.11545l1.22144,1.22144C9.33254,14.07772,9.36209,13.72418,9.35935,13.29789Z" fill="#5070a8"/>
      </g>
      <g>
        <path d="M9.90063,9.90072l4.66148,4.66168.02413-4.721-.29212-.29211c-.21659-.21659-.57013-.187-.99641-.18979L9.35608,9.35617l.54455.54455" fill="#5070a8"/>
        <path d="M14.56211,14.5624,16,14.58865V11.255L14.58624,9.84144Z" fill="#5070a8"/>
        <path d="M13.29771,9.35954,9.35609,9.35617h0l2.60115-1.247a.88773.88773,0,0,1,1.11545.21868l1.22144,1.22145C14.07753,9.33274,13.724,9.36228,13.29771,9.35954Z" fill="#7cc1fd"/>
      </g>
    </g>
  </g>
</svg>
